X:1
T:Rebecca, 11.11.11.11
T:Rebecca, 11.11.11.11
T:John M. Shenk (1848-1935)
T:Public Domain Courtesy of the Cyber Hymnal™
C:John M. Shenk (1848-1935)
Z:Public Domain
Z:Courtesy of the Cyber Hymnal™
%%score 1 ( 2 3 )
L:1/8
Q:1/4=107
M:4/4
K:D
V:1 treble 
V:2 bass 
V:3 bass 
V:1
 [FA] [FA]2 [DG] [DF] [DB]2 [DA] | [DF] [EG][DF] [CE] D [CA]3 | [GA] [Fd]2 [Fd] [Ge] [Fd]2 [Ec] | %3
 [DB] [CA]2 [DB] [Ec] [CA]3 | [GA] [Fd]2 [Ac] [GB] [FA]2 [EG] | [DF] [CE][DF] [EG] [GB] [FA]3 | %6
 [FA] [Fd]2 [Af] [Ge] [Fd]2 [Ac] | [GB] [FA]2 [GB] [Gc] [Fd]3 |] %8
V:2
 [D,D] [D,D]2 [D,B,] [D,A,] [D,G,]2 [D,F,] | [D,A,] [A,,A,]2 [A,,G,] [A,,F,] [A,,E,]3 | %2
 [G,A,] [D,A,]2 [D,A,] [D,A,] [D,A,]2 [D,A,] | [D,A,] [E,A,]2 [E,^G,] [E,G,] A,3 | %4
 [^G,A,] [D,A,]2 [D,D] [D,D] [D,D]2 [D,A,] | [D,A,] [A,,E,]2 [A,,C] [A,,C] [D,D]3 | %6
 [D,A,] [D,A,]2 [D,D] [D,D] [D,A,]2 [F,A,] | [G,D] [A,C]2 [A,,C] [A,,A,] [D,A,]3 |] %8
V:3
 x8 | x8 | x8 | x5 A,3 | x8 | x8 | x8 | x8 |] %8

